X:215
T: What Call Have You to Me Ned
S: "Roche Collection of Traditional Irish Music" [I/50/122]
L: 1/8
M: 6/8
R: jig
K: G
dBG GFG | GFG ABc | dBG GFG | EAG FED |
dBG GFG | GFG Bcd | gfe dcB | ABG FED :|
Bcd ded | ded dcB | cde ege | ege edc |
Bcd ded | ded def | gfe dcB | ABG FED :|
